X: 1
T:Kenneth J. MacLeod  "1998.3"
M:6/8
L:1/8
Q:80
C:P/M Peter R. MacLeod
S:March
K:HP
|: {ag}a|
{cd}c3{gcd}c3/2{e}B/2{d}c|
{g}A3/2{d}c/2f{gef}e3|  !
{ag}a2{g}a{fg}f3/2e/2c|
{gcd}c3/2{g}B/2{d}A{GdG}B2{e}A|
{gcd}c3{gcd}c3/2{e}B/2{d}c|  !
{g}A3/2{d}c/2f{gef}e3|
{g}f/2a3/2{g}a{fg}f3/2e/2c|
{g}B/2{d}c3/2{e}A{GAG}A2:|  !
{g}c/4e3/4|
{g}f3{gfg}f3/2e/2{g}c|
{g}e3/2f/2{g}c{gef}e3|  !
{ag}a3{g}a3/2f/2{g}e|
{g}f3/2e/2a{fg}f2{g}e|1
{g}c/2e3/2{g}A{g}c/2e3/2{g}f|  !
{g}c3/2e/2{A}e{gfg}f2{g}e|
{g}f/2a3/2{g}a{fg}f3/2e/2c|
{g}B/2{d}c3/2{e}A{GAG}A2:|2  !
{gcd}c3{gcd}c3/2{e}B/2{d}c|
{g}A3/2{d}c/2f{gef}e3|
{g}f/2a3/2{g}a{fg}f3/2e/2c|  !
{g}B/2{d}c3/2{e}A{GAG}A2|] |:
{ag}a|
c2{GdGe}c{gcd}c3/2B/2{G}A|  !
{g}e2{GdG}e{gfg}f2{g}e|
a2{GdG}a{fg}f3/2e/2c|
{gcd}c3/2{g}B/2{d}A{GdG}B2{e}A|  !
{g}c2{GdGe}c{gcd}c3/2B/2{G}A|
{g}e2{GdG}e{gfg}f2{g}e|
{g}f/2a3/2{g}a{fg}f3/2e/2c|  !
{g}B/2{d}c3/2{e}A{GAG}A2:| |:
{ag}a|
c/2e3/2{g}A{g}c/2e3/2{g}f|  !
{g}c3/2e/2{A}e{gfg}f2{g}e|
{g}f/2a3/2A{g}f3/2a/2{g}a|
{fg}f3/2e/2a{fg}f2{g}e|1  !
{g}c/2e3/2{g}A{g}c/2e3/2{g}f|
{g}c3/2e/2{A}e{gfg}f2{g}e|
{g}f/2a3/2{g}a{fg}f3/2e/2c|  !
{g}B/2{d}c3/2{e}A{GAG}A2:|2
{g}c2{GdGe}c{gcd}c3/2B/2{G}A|
{g}e2{GdG}e{gfg}f2{g}e|  !
{g}f/2a3/2{g}a{fg}f3/2e/2c|
{g}B/2{d}c3/2{e}A{GAG}A2|]
